web/ui/src/assets/svgs/logo/gitlab.svg

<?xml version="1.0" encoding="UTF-8"?>
<svg width="56px" height="56px" viewBox="0 0 56 56" version="1.1" xmlns="http://www.w3.org/2000/svg" xmlns:xlink="http://www.w3.org/1999/xlink">
    <title>分组备份 2</title>
    <g id="页面-1" stroke="none" stroke-width="1" fill="none" fill-rule="evenodd">
        <g id="建木自动化-登录页(GitLab)1" transform="translate(-464.000000, -275.000000)">
            <g id="分组备份-3" transform="translate(464.000000, 275.000000)">
                <rect id="矩形" fill="#000000" opacity="0" x="0" y="0" width="56" height="56"></rect>
                <g id="gitlab" transform="translate(3.111111, 3.888889)" fill-rule="nonzero">
                    <path d="M48.9405778,19.1002 L48.8708889,18.9219333 L42.1037556,1.26479111 C41.9662444,0.918493333 41.7228,0.624477778 41.4084222,0.424710222 C41.0915556,0.224740444 40.7205556,0.128034667 40.3464444,0.147944222 C39.9723333,0.167853778 39.6136222,0.303394 39.3197778,0.535859333 C39.0287333,0.769242444 38.8188889,1.08857778 38.7201111,1.44831556 L34.1449111,15.4504 L15.6347333,15.4504 L11.0596267,1.44831556 C10.9608333,1.08857778 10.7509578,0.769242444 10.4599444,0.535859333 C10.1673911,0.301832222 9.80889778,0.165271556 9.43480222,0.145337111 C9.06069111,0.125402667 8.68972222,0.223097778 8.37396,0.424710222 C8.05813556,0.623659556 7.81374222,0.917855556 7.67604444,1.26479111 L0.901155111,18.9451111 L0.831363556,19.1208889 C-0.141172267,21.6673333 -0.260717333,24.4606444 0.490703111,27.0808222 C1.24212356,29.701 2.82389333,32.0064889 4.99814,33.6504 L5.02399333,33.6684444 L5.08344667,33.7149556 L15.40476,41.4410889 L20.5072,45.3055556 L23.6091333,47.6550667 C23.9734444,47.9304 24.4177111,48.0794222 24.8744222,48.0794222 C25.3309778,48.0794222 25.7752444,47.9304 26.1397111,47.6550667 L29.2414889,45.3055556 L34.3465111,41.4410889 L44.7273556,33.6684444 L44.7556667,33.6477556 C46.9373333,32.0054 48.5254,29.6980444 49.2803111,27.0736667 C50.0353778,24.4494444 49.9160667,21.6508444 48.9405778,19.1002 Z" id="路径" fill="#E24329"></path>
                    <path d="M48.9408889,19.1002 L48.8712,18.9219333 C45.5707778,19.6020222 42.4607556,21.0007778 39.7621778,23.0188 L24.9018,34.2810222 C29.9680889,38.1118889 34.3779333,41.4410889 34.3779333,41.4410889 L44.7586222,33.6684444 L44.7870889,33.6477556 C46.9633111,32.0013556 48.5451556,29.6919778 49.2944667,27.0680667 C50.0437778,24.444 49.9196444,21.6475778 48.9408889,19.1002 Z" id="路径" fill="#FC6D26"></path>
                    <path d="M15.4127556,41.4410889 L20.5075111,45.3055556 L23.6092889,47.6550667 C23.9737556,47.9304 24.4178667,48.0794222 24.8745778,48.0794222 C25.3312889,48.0794222 25.7755556,47.9304 26.1398667,47.6550667 L29.2416444,45.3055556 L34.3468222,41.4410889 C34.3468222,41.4410889 29.9369778,38.1118889 24.8706889,34.2810222 L15.4127556,41.4410889 Z" id="路径" fill="#FCA326"></path>
                    <path d="M10.0102022,23.0292222 C7.31229333,21.0104222 4.20191333,19.6124444 0.901184667,18.9348444 L0.831393111,19.1106222 C-0.143640467,21.6583111 -0.264500444,24.4538 0.487011778,27.0761556 C1.238524,29.6985111 2.82171556,32.0057111 4.99817111,33.6504 L5.02402444,33.6684444 L5.08347778,33.7149556 L15.4047756,41.4410889 L24.9014889,34.2810222 L10.0102022,23.0292222 Z" id="路径" fill="#FC6D26"></path>
                </g>
            </g>
        </g>
    </g>
</svg>

<svg height="56" viewBox="0 0 56 56" width="56" xmlns="http://www.w3.org/2000/svg"><g fill="none" fill-rule="evenodd"><path d="m0 0h56v56h-56z" fill="#000" opacity="0"/><g fill-rule="nonzero" transform="translate(3.111111 3.888889)"><path d="m48.9405778 19.1002-.0696889-.1782667-6.7671333-17.65714219c-.1375112-.34629778-.3809556-.64031333-.6953334-.84008089-.3168666-.19996978-.6878666-.29667555-1.0619778-.276766-.3741111.01990956-.7328222.15544978-1.0266666.38791511-.2910445.23338311-.5008889.55271845-.5996667.91245623l-4.5752 14.00208444h-18.5101778l-4.5751066-14.00208444c-.0987934-.35973778-.3086689-.67907312-.5996823-.91245623-.2925533-.23402711-.65104662-.37058777-1.02514218-.39052222-.37411111-.01993444-.74508.07776067-1.06084222.27937311-.31582444.19894934-.56021778.49314534-.69791556.84008089l-6.77488933 17.68031999-.06979155.1757778c-.97253583 2.5464444-1.09208089 5.3397555-.34066045 7.9599333.75142045 2.6201778 2.33319022 4.9256667 4.50743689 6.5695778l.02585333.0180444.05945334.0465112 10.32131333 7.7261333 5.10244 3.8644667 3.1019333 2.3495111c.3643111.2753333.8085778.4243555 1.2652889.4243555.4565556 0 .9008222-.1490222 1.2652889-.4243555l3.1017778-2.3495111 5.1050222-3.8644667 10.3808445-7.7726445.0283111-.0206888c2.1816666-1.6423556 3.7697333-3.9497112 4.5246444-6.5740889.7550667-2.6242223.6357556-5.4228223-.3397333-7.9734667z" fill="#e24329"/><path d="m48.9408889 19.1002-.0696889-.1782667c-3.3004222.6800889-6.4104444 2.0788445-9.1090222 4.0968667l-14.8603778 11.2622222c5.0662889 3.8308667 9.4761333 7.1600667 9.4761333 7.1600667l10.3806889-7.7726445.0284667-.0206888c2.1762222-1.6464 3.7580667-3.9557778 4.5073778-6.5796889.7493111-2.6240667.6251777-5.4204889-.3535778-7.9678667z" fill="#fc6d26"/><path d="m15.4127556 41.4410889 5.0947555 3.8644667 3.1017778 2.3495111c.3644667.2753333.8085778.4243555 1.2652889.4243555s.9009778-.1490222 1.2652889-.4243555l3.1017777-2.3495111 5.1051778-3.8644667s-4.4098444-3.3292-9.4761333-7.1600667z" fill="#fca326"/><path d="m10.0102022 23.0292222c-2.69790887-2.0188-5.80828887-3.4167778-9.10901753-4.0943778l-.06979156.1757778c-.97503358 2.5476889-1.09589355 5.3431778-.34438133 7.9655334.75151222 2.6223555 2.33470378 4.9295555 4.51115933 6.5742444l.02585333.0180444.05945334.0465112 10.32129782 7.7261333 9.4967133-7.1600667z" fill="#fc6d26"/></g></g></svg>
